X:262
T: ICH SOLL UND MUSS EIN BULEN HABEN
N: E0859
O: Europa, Mitteleuropa, Deutschland
R: Hochzeits -, Ehestands - Lied
M: 4/4
L: 1/8
K: F
 | c4c2c2 | c2c2B2c2 | A4F4 |
A3Bc2d2- | d2c4B2 | c8 |
c4c2c2 | c2c2B2c2 | A4F4 |
A2Bcd2c2- | c2BAG2G2 | F8

@@@ Tune index: 4575
